X:1
T:The Cruel Brother
M:2/2
L:1/4
K:C
 G| B B/2A/2 G G| c/2c/2 c/2B/2 A c| d3/2 d/2 c e| d2| d2| e d B A/2B/2|\
 d d/2B/2 A G/2A/2| B2 A B| d A G||
